documentation/public/assets/images/number-input-field.svg

<svg width="144" height="61" viewBox="0 0 144 61" fill="none" xmlns="http://www.w3.org/2000/svg">
<path d="M40.5 21.5H103.5V60.5H40.5V21.5Z" fill="white"/>
<path d="M61 47.1591C60.1439 47.1591 59.4148 46.9261 58.8125 46.4602C58.2102 45.9905 57.75 45.3106 57.4318 44.4205C57.1136 43.5265 56.9545 42.447 56.9545 41.1818C56.9545 39.9242 57.1136 38.8504 57.4318 37.9602C57.7538 37.0663 58.2159 36.3845 58.8182 35.9148C59.4242 35.4413 60.1515 35.2045 61 35.2045C61.8485 35.2045 62.5739 35.4413 63.1761 35.9148C63.7822 36.3845 64.2443 37.0663 64.5625 37.9602C64.8845 38.8504 65.0455 39.9242 65.0455 41.1818C65.0455 42.447 64.8864 43.5265 64.5682 44.4205C64.25 45.3106 63.7898 45.9905 63.1875 46.4602C62.5852 46.9261 61.8561 47.1591 61 47.1591ZM61 45.9091C61.8485 45.9091 62.5076 45.5 62.9773 44.6818C63.447 43.8636 63.6818 42.697 63.6818 41.1818C63.6818 40.1742 63.5739 39.3163 63.358 38.608C63.1458 37.8996 62.839 37.3598 62.4375 36.9886C62.0398 36.6174 61.5606 36.4318 61 36.4318C60.1591 36.4318 59.5019 36.8466 59.0284 37.6761C58.5549 38.5019 58.3182 39.6705 58.3182 41.1818C58.3182 42.1894 58.4242 43.0455 58.6364 43.75C58.8485 44.4545 59.1534 44.9905 59.5511 45.358C59.9527 45.7254 60.4356 45.9091 61 45.9091Z" fill="#757575"/>
<path d="M40.5 21.5H103.5V60.5H40.5V21.5Z" stroke="#545454"/>
<mask id="path-3-inside-1_1423_5304" fill="white">
<path d="M0 25C0 22.7909 1.79086 21 4 21H40V61H4C1.79086 61 0 59.2091 0 57V25Z"/>
</mask>
<path d="M0 25C0 22.7909 1.79086 21 4 21H40V61H4C1.79086 61 0 59.2091 0 57V25Z" fill="white"/>
<path d="M28.0001 41.3801H12.0001C11.7926 41.3801 11.6201 41.2103 11.6201 41.0001C11.6201 40.7863 11.7863 40.6201 12.0001 40.6201H28.0001C28.2077 40.6201 28.3801 40.7899 28.3801 41.0001C28.3801 41.214 28.214 41.3801 28.0001 41.3801Z" fill="#0F67F5" stroke="#757575"/>
<path d="M-1 25C-1 22.2386 1.23858 20 4 20H40V22H4C2.34315 22 1 23.3431 1 25H-1ZM40 62H4C1.23858 62 -1 59.7614 -1 57H1C1 58.6569 2.34315 60 4 60H40V62ZM4 62C1.23858 62 -1 59.7614 -1 57V25C-1 22.2386 1.23858 20 4 20V22C2.34315 22 1 23.3431 1 25V57C1 58.6569 2.34315 60 4 60V62ZM40 21V61V21Z" fill="#545454" mask="url(#path-3-inside-1_1423_5304)"/>
<mask id="path-6-inside-2_1423_5304" fill="white">
<path d="M104 21H140C142.209 21 144 22.7909 144 25V57C144 59.2091 142.209 61 140 61H104V21Z"/>
</mask>
<path d="M104 21H140C142.209 21 144 22.7909 144 25V57C144 59.2091 142.209 61 140 61H104V21Z" fill="white"/>
<path d="M123.62 41.8801V41.3801H123.12H116C115.793 41.3801 115.62 41.2103 115.62 41.0001C115.62 40.7863 115.786 40.6201 116 40.6201H123.12H123.62V40.1201V33.0001C123.62 32.7926 123.79 32.6201 124 32.6201C124.214 32.6201 124.38 32.7863 124.38 33.0001V40.1201V40.6201H124.88H132C132.208 40.6201 132.38 40.7899 132.38 41.0001C132.38 41.214 132.214 41.3801 132 41.3801H124.88H124.38V41.8801V49.0001C124.38 49.2077 124.21 49.3801 124 49.3801C123.793 49.3801 123.62 49.2103 123.62 49.0001V41.8801Z" fill="#0F67F5" stroke="#757575"/>
<path d="M104 20H140C142.761 20 145 22.2386 145 25H143C143 23.3431 141.657 22 140 22H104V20ZM145 57C145 59.7614 142.761 62 140 62H104V60H140C141.657 60 143 58.6569 143 57H145ZM104 61V21V61ZM140 20C142.761 20 145 22.2386 145 25V57C145 59.7614 142.761 62 140 62V60C141.657 60 143 58.6569 143 57V25C143 23.3431 141.657 22 140 22V20Z" fill="#545454" mask="url(#path-6-inside-2_1423_5304)"/>
<path d="M1.00426 11V0.818182H2.84872V9.45384H7.3331V11H1.00426ZM11.0518 11.1541C10.5679 11.1541 10.1321 11.0679 9.74432 10.8956C9.35985 10.7199 9.05492 10.4614 8.82955 10.12C8.60748 9.77865 8.49645 9.35772 8.49645 8.85724C8.49645 8.42637 8.57599 8.07008 8.73509 7.78835C8.89418 7.50663 9.11127 7.28125 9.38636 7.11222C9.66146 6.94318 9.97135 6.81558 10.3161 6.7294C10.6641 6.63991 11.0237 6.57528 11.3949 6.53551C11.8423 6.48911 12.2053 6.44768 12.4837 6.41122C12.7621 6.37145 12.9643 6.31179 13.0902 6.23224C13.2195 6.14938 13.2841 6.02178 13.2841 5.84943V5.8196C13.2841 5.44508 13.1731 5.15507 12.951 4.94957C12.7289 4.74408 12.4091 4.64134 11.9915 4.64134C11.5507 4.64134 11.201 4.73745 10.9425 4.92969C10.6873 5.12192 10.5149 5.34896 10.4254 5.6108L8.74503 5.37216C8.8776 4.90814 9.09635 4.52036 9.40128 4.20881C9.7062 3.89394 10.0791 3.65862 10.5199 3.50284C10.9607 3.34375 11.4479 3.2642 11.9815 3.2642C12.3494 3.2642 12.7157 3.30729 13.0803 3.39347C13.4448 3.47964 13.7779 3.62216 14.0795 3.82102C14.3812 4.01657 14.6231 4.28338 14.8054 4.62145C14.991 4.95952 15.0838 5.3821 15.0838 5.8892V11H13.3537V9.95099H13.294C13.1847 10.1631 13.0305 10.362 12.8317 10.5476C12.6361 10.7299 12.3892 10.8774 12.0909 10.9901C11.7959 11.0994 11.4496 11.1541 11.0518 11.1541ZM11.5192 9.83168C11.8804 9.83168 12.1937 9.76042 12.4588 9.6179C12.724 9.47206 12.9278 9.27983 13.0703 9.04119C13.2161 8.80256 13.2891 8.54238 13.2891 8.26065V7.3608C13.2327 7.4072 13.1366 7.45028 13.0007 7.49006C12.8681 7.52983 12.719 7.56463 12.5533 7.59446C12.3875 7.62429 12.2235 7.6508 12.0611 7.67401C11.8987 7.69721 11.7578 7.71709 11.6385 7.73366C11.37 7.77012 11.1297 7.82978 10.9176 7.91264C10.7055 7.9955 10.5381 8.11151 10.4155 8.26065C10.2929 8.40649 10.2315 8.59541 10.2315 8.82741C10.2315 9.15885 10.3525 9.40909 10.5945 9.57812C10.8364 9.74716 11.1446 9.83168 11.5192 9.83168ZM16.973 11V0.818182H18.7727V4.62642H18.8473C18.9401 4.44081 19.071 4.24361 19.2401 4.0348C19.4091 3.82268 19.6378 3.64205 19.9261 3.4929C20.2145 3.34044 20.5824 3.2642 21.0298 3.2642C21.6198 3.2642 22.1518 3.41501 22.6257 3.71662C23.103 4.01491 23.4808 4.45739 23.7592 5.04403C24.041 5.62737 24.1818 6.34328 24.1818 7.19176C24.1818 8.0303 24.0443 8.7429 23.7692 9.32955C23.4941 9.91619 23.1196 10.3636 22.6456 10.6719C22.1716 10.9801 21.6347 11.1342 21.0348 11.1342C20.5973 11.1342 20.2344 11.0613 19.946 10.9155C19.6577 10.7696 19.4257 10.594 19.25 10.3885C19.0777 10.1797 18.9434 9.98248 18.8473 9.79688H18.7429V11H16.973ZM18.7379 7.18182C18.7379 7.67566 18.8075 8.10819 18.9467 8.4794C19.0893 8.85062 19.2931 9.14062 19.5582 9.34943C19.8267 9.55492 20.1515 9.65767 20.5327 9.65767C20.9304 9.65767 21.2635 9.55161 21.532 9.33949C21.8004 9.12405 22.0026 8.83073 22.1385 8.45952C22.2777 8.08499 22.3473 7.65909 22.3473 7.18182C22.3473 6.70786 22.2794 6.28693 22.1435 5.91903C22.0076 5.55114 21.8054 5.26278 21.5369 5.05398C21.2685 4.84517 20.9337 4.74077 20.5327 4.74077C20.1482 4.74077 19.8217 4.84186 19.5533 5.04403C19.2848 5.24621 19.081 5.52959 18.9418 5.89418C18.8059 6.25876 18.7379 6.68797 18.7379 7.18182ZM29.0925 11.1491C28.3269 11.1491 27.6657 10.9901 27.1088 10.6719C26.5553 10.3504 26.1294 9.89631 25.8311 9.30966C25.5328 8.7197 25.3837 8.02533 25.3837 7.22656C25.3837 6.44105 25.5328 5.75166 25.8311 5.15838C26.1328 4.56179 26.5537 4.09777 27.0939 3.76633C27.6342 3.43158 28.2689 3.2642 28.998 3.2642C29.4687 3.2642 29.9128 3.34044 30.3304 3.4929C30.7514 3.64205 31.1226 3.87405 31.4441 4.18892C31.7689 4.50379 32.0241 4.90483 32.2097 5.39205C32.3953 5.87595 32.4881 6.45265 32.4881 7.12216V7.67401H26.2289V6.46094H30.763C30.7596 6.11624 30.6851 5.80966 30.5392 5.54119C30.3934 5.26941 30.1896 5.05563 29.9277 4.89986C29.6692 4.74408 29.3676 4.66619 29.0229 4.66619C28.655 4.66619 28.3319 4.75568 28.0534 4.93466C27.775 5.11032 27.5579 5.34233 27.4022 5.63068C27.2497 5.91572 27.1718 6.22893 27.1685 6.57031V7.62926C27.1685 8.07339 27.2497 8.45455 27.4121 8.77273C27.5745 9.08759 27.8016 9.32955 28.0932 9.49858C28.3849 9.6643 28.7263 9.74716 29.1174 9.74716C29.3792 9.74716 29.6162 9.7107 29.8283 9.63778C30.0404 9.56155 30.2244 9.45052 30.3801 9.30469C30.5359 9.15885 30.6536 8.97822 30.7331 8.76278L32.4135 8.9517C32.3075 9.39583 32.1053 9.78362 31.807 10.1151C31.512 10.4432 31.1342 10.6984 30.6735 10.8807C30.2128 11.0597 29.6858 11.1491 29.0925 11.1491ZM35.8104 0.818182V11H34.0107V0.818182H35.8104Z" fill="#333333"/>
</svg>

<svg width="144" height="61" fill="none" xmlns="http://www.w3.org/2000/svg"><path d="M40.5 21.5h63v39h-63v-39Z" fill="#fff"/><path d="M61 47.16c-.86 0-1.59-.23-2.19-.7a4.37 4.37 0 0 1-1.38-2.04 9.7 9.7 0 0 1-.48-3.24c0-1.26.16-2.33.48-3.22a4.4 4.4 0 0 1 1.39-2.05c.6-.47 1.33-.7 2.18-.7.85 0 1.57.23 2.18.7.6.47 1.06 1.16 1.38 2.05.32.89.49 1.96.49 3.22a9.7 9.7 0 0 1-.48 3.24 4.37 4.37 0 0 1-1.38 2.04c-.6.47-1.33.7-2.19.7Zm0-1.25c.85 0 1.5-.41 1.98-1.23.47-.82.7-1.98.7-3.5 0-1-.1-1.86-.32-2.57a3.53 3.53 0 0 0-.92-1.62c-.4-.37-.88-.56-1.44-.56-.84 0-1.5.42-1.97 1.25a7.01 7.01 0 0 0-.71 3.5 9 9 0 0 0 .32 2.57c.2.7.51 1.24.91 1.6.4.38.89.56 1.45.56Z" fill="#757575"/><path d="M40.5 21.5h63v39h-63v-39Z" stroke="#545454"/><mask id="a" fill="#fff"><path d="M0 25a4 4 0 0 1 4-4h36v40H4a4 4 0 0 1-4-4V25Z"/></mask><path d="M0 25a4 4 0 0 1 4-4h36v40H4a4 4 0 0 1-4-4V25Z" fill="#fff"/><path d="M28 41.38H12a.38.38 0 0 1-.38-.38c0-.21.17-.38.38-.38h16c.2 0 .38.17.38.38s-.17.38-.38.38Z" fill="#0F67F5" stroke="#757575"/><path d="M-1 25a5 5 0 0 1 5-5h36v2H4a3 3 0 0 0-3 3h-2Zm41 37H4a5 5 0 0 1-5-5h2a3 3 0 0 0 3 3h36v2ZM4 62a5 5 0 0 1-5-5V25a5 5 0 0 1 5-5v2a3 3 0 0 0-3 3v32a3 3 0 0 0 3 3v2Zm36-41v40-40Z" fill="#545454" mask="url(#a)"/><mask id="b" fill="#fff"><path d="M104 21h36a4 4 0 0 1 4 4v32a4 4 0 0 1-4 4h-36V21Z"/></mask><path d="M104 21h36a4 4 0 0 1 4 4v32a4 4 0 0 1-4 4h-36V21Z" fill="#fff"/><path d="M123.62 41.88v-.5H116a.38.38 0 0 1-.38-.38c0-.21.17-.38.38-.38h7.62V33c0-.2.17-.38.38-.38s.38.17.38.38v7.62H132c.2 0 .38.17.38.38s-.17.38-.38.38h-7.62V49c0 .2-.17.38-.38.38a.38.38 0 0 1-.38-.38v-7.12Z" fill="#0F67F5" stroke="#757575"/><path d="M104 20h36a5 5 0 0 1 5 5h-2a3 3 0 0 0-3-3h-36v-2Zm41 37a5 5 0 0 1-5 5h-36v-2h36a3 3 0 0 0 3-3h2Zm-41 4V21v40Zm36-41a5 5 0 0 1 5 5v32a5 5 0 0 1-5 5v-2a3 3 0 0 0 3-3V25a3 3 0 0 0-3-3v-2Z" fill="#545454" mask="url(#b)"/><path d="M1 11V.82h1.85v8.63h4.48V11H1Zm10.05.15c-.48 0-.92-.08-1.3-.25a2.13 2.13 0 0 1-.92-.78 2.27 2.27 0 0 1-.33-1.26c0-.43.08-.79.24-1.07.15-.28.37-.5.65-.68.27-.17.58-.3.93-.38.34-.09.7-.15 1.07-.2l1.1-.12c.27-.04.47-.1.6-.18.13-.08.2-.2.2-.38v-.03c0-.37-.12-.66-.34-.87-.22-.2-.54-.3-.96-.3-.44 0-.79.09-1.05.28-.25.2-.43.42-.51.68l-1.68-.24a2.68 2.68 0 0 1 1.77-1.87 4.76 4.76 0 0 1 2.56-.1c.36.08.7.22 1 .42.3.2.54.46.73.8.18.34.27.76.27 1.27V11h-1.73V9.95h-.06A2.2 2.2 0 0 1 12.1 11c-.3.1-.64.16-1.04.16Zm.47-1.32a2 2 0 0 0 .94-.21c.26-.15.47-.34.61-.58.15-.24.22-.5.22-.78v-.9a.85.85 0 0 1-.29.13 13.83 13.83 0 0 1-1.36.24c-.27.04-.51.1-.72.18-.21.09-.38.2-.5.35a.85.85 0 0 0-.19.57c0 .33.12.58.36.75.25.17.55.25.93.25ZM16.97 11V.82h1.8v3.8h.08c.09-.18.22-.38.39-.59.17-.2.4-.39.69-.54a2.91 2.91 0 0 1 3.83 1.55c.28.59.42 1.3.42 2.15a5 5 0 0 1-.41 2.14 2.89 2.89 0 0 1-2.73 1.8c-.44 0-.8-.07-1.1-.21a2.22 2.22 0 0 1-.69-.53 3.3 3.3 0 0 1-.4-.6h-.1V11h-1.78Zm1.77-3.82c0 .5.07.93.2 1.3.15.37.35.66.62.87.27.2.6.3.97.3.4 0 .73-.1 1-.31.27-.22.47-.5.6-.88.15-.38.22-.8.22-1.28 0-.47-.07-.9-.2-1.26a1.9 1.9 0 0 0-.61-.87c-.27-.2-.6-.3-1-.3a1.6 1.6 0 0 0-1.59 1.14c-.14.37-.21.8-.21 1.3Zm10.35 3.97c-.76 0-1.42-.16-1.98-.48a3.23 3.23 0 0 1-1.28-1.36 4.56 4.56 0 0 1-.45-2.08c0-.79.15-1.48.45-2.07A3.38 3.38 0 0 1 29 3.26c.47 0 .91.08 1.33.23a3.19 3.19 0 0 1 1.88 1.9c.19.49.28 1.06.28 1.73v.55h-6.26v-1.2h4.53c0-.35-.07-.66-.22-.93a1.63 1.63 0 0 0-.61-.64 1.72 1.72 0 0 0-.9-.23c-.38 0-.7.09-.98.26-.28.18-.5.41-.65.7a2 2 0 0 0-.23.94v1.06c0 .44.08.82.24 1.14.16.32.4.56.68.73.3.16.64.25 1.03.25.26 0 .5-.04.7-.11.22-.08.4-.19.56-.34.16-.14.27-.32.35-.54l1.68.2c-.1.44-.3.82-.6 1.16-.3.32-.68.58-1.14.76-.46.18-.98.27-1.58.27ZM35.81.82V11h-1.8V.82h1.8Z" fill="#333"/></svg>
